tenants/story/icons/folder.svg

<svg fill="none" height="24" viewBox="0 0 24 24" width="24" xmlns="http://www.w3.org/2000/svg"><path d="m4.42406 19.7577c-.53309 0-.98909-.1898-1.36946-.5694-.18345-.1775-.32867-.3905-.42673-.6262-.09805-.2356-.14687-.4888-.14345-.744v-11.63637c0-.53309.19055-.98909.57018-1.36945.17738-.18333.39035-.32848.62584-.42653.2355-.09805.48855-.14693.74362-.14365h5.81814l1.9397 1.93963h7.7571c.5338 0 .9905.18982 1.3701.57019.3804.38036.5702.83636.5695 1.36945v9.69673c0 .5331-.1891.9898-.5687 1.3702-.1772.1837-.3903.329-.626.427-.2357.0979-.489.1464-.7442.1424h-15.51637z" fill="#000"/></svg>

<svg width="24" height="24" viewBox="0 0 24 24" fill="none" xmlns="http://www.w3.org/2000/svg">
<path d="M4.42406 19.7577C3.89097 19.7577 3.43497 19.5679 3.0546 19.1883C2.87115 19.0108 2.72593 18.7978 2.62787 18.5621C2.52982 18.3265 2.481 18.0733 2.48442 17.8181V6.18173C2.48442 5.64864 2.67497 5.19264 3.0546 4.81228C3.23198 4.62895 3.44495 4.4838 3.68044 4.38575C3.91594 4.2877 4.16899 4.23882 4.42406 4.2421H10.2422L12.1819 6.18173H19.939C20.4728 6.18173 20.9295 6.37155 21.3091 6.75192C21.6895 7.13228 21.8793 7.58828 21.8786 8.12137V17.8181C21.8786 18.3512 21.6895 18.8079 21.3099 19.1883C21.1327 19.372 20.9196 19.5173 20.6839 19.6153C20.4482 19.7132 20.1949 19.7617 19.9397 19.7577H4.42333H4.42406Z" fill="black"/>
</svg>
